FINK
CUT[WENN ICH MAL ZU HAUS WERD SEIN]
REG[Europa, Mitteleuropa, Deutschland]
KEY[F0204  16  C 2/4]
MEL[  1_-5_-5_-3_  1_-6_-5__
    -5_-7_-7_2_  1_3_2__
    2_-5_-5_-5_  -5_.-6-6__
    -6_-7_-7_-7_  -7_.11__
    -5_-6_-7_1_  2_3_4__
    3_2_1_2_  -7_.11__ //] >>
FCT[Liebes - Lied, Scherz]
